X: 19327
T: Jack Is Yet Alive
R: reel
M: 4/4
K: Gmajor
GE|:DEGB A2Ac|BdBG AGEG|DEGB A2Ac|1 BGAF G2GE:|2 BGAF G2ef||
g2ge f2fd|efge agfd|g2ge f2fd|efag f2df|
g2ge f2fd|e2ef edB2|g2fg e2dc|BGAF G2||

